X: 1
T: Nelly Bly #2
I: Nelly BlyS-NAsquare
%C: S-N
M: C|
Z: Transcribed to abc by Mary Lou Knack
R: square
K: A
"A"C2D2 E2E2| C2D2 E4| C2D2 E2F2| "E7"B,6 B,2| \
"A"C2D2 E2E2| "D"F2G2 A4| "E7"G2A2 B2G2| "A"A8|]
|:\
"A"c4 A2A2| "D"A4 F2F2| "A"E2E2 C2A,2| "E7"B,6 B,2| \
"A"C2D2 E2E2| "D"F2G2 A4| "E7"G2A2 B2G2|1 "A"A4 A2B2:|2 "A"A6 z2|]
